X:1
$NormLMargin
$NormRMargin
T:The Roaring Barmaid B part harmonies
R:jig
D:
Z:
L:1/8
M:6/8
K:G
P:1st Harmony
GGB d3|dcd GGB| d3 dcB|GGD GGB |d3 dcd|
cBB dBB| cBB GAB| GGB cAG:|"go out on"D6 |]
P:2nd Harmony
Bcd g3 |geg Bcd |g3 ged |cBG Bcd | g3 geg |
edd gdd |edd Bcd | Bcd gfd:|"go out on"B6 |]
%
